X:8
T:GB/7d/8 "Banks of Sweet Dundee" 
%%VWML:GB-7d-8-0
F:http://www.vwml.org/record/GB/7d/8
C:Transcribed by Simon Furey and Lewis Jones
L:1/8
M:6/8
I:linebreak $
K:G
d | c2 B G2 G | B2 c d2 B | c2 B G2 G | G3- G2 d | g2 g d2 e |$ =f3 e2 c | _B2 A =f2 e | "^." d3- d2 d | g2 g d2 e | =f3 e2 c |$ _B2 A =f2 e | d3- d2 d | c2 B G2 G | B2 c d2 B | c2 B G2 G | G3- G2 |]

